; generated by PrusaSlicer 2.9.2 on 2025-07-13 at 14:55:43 UTC


;
;
; 

; external perimeters extrusion width = 0.60mm
; perimeters extrusion width = 0.50mm
; infill extrusion width = 0.50mm
; solid infill extrusion width = 0.50mm
; top infill extrusion width = 0.45mm
; support material extrusion width = 0.38mm
; first layer extrusion width = 0.42mm

M73 P0 R54
M73 Q0 S54
M201 X1000 Y1000 Z200 E5000 ; sets maximum accelerations, mm/sec^2
M203 X200 Y200 Z12 E120 ; sets maximum feedrates, mm / sec
M204 S1250 T1250 ; sets acceleration (S) and retract acceleration (R), mm/sec^2
M205 X8.00 Y8.00 Z0.40 E4.50 ; sets the jerk limits, mm/sec
M205 S0 T0 ; sets the minimum extruding and travel feed rate, mm/sec

; printing object refined_hand_blender_small.stl id:0 copy 0
; stop printing object refined_hand_blender_small.stl id:0 copy 0

;TYPE:Custom
M862.3 P "MK3S" ; printer model check
M862.1 P0.4 ; nozzle diameter check
M115 U3.14.1 ; tell printer latest fw version
G90 ; use absolute coordinates
M83 ; extruder relative mode
M104 S215 ; set extruder temp
M140 S60 ; set bed temp
M190 S60 ; wait for bed temp
M109 S215 ; wait for extruder temp
G28 W ; home all without mesh bed level
G80 X87.8728 Y78.0876 W66.6111 H47.4598 ; mesh bed levelling

G1 Z0.2 F720
G1 Y-3 F1000 ; go outside print area
G92 E0
G1 X60 E9 F1000 ; intro line
G1 X100 E12.5 F1000 ; intro line

G92 E0
M221 S95

; Don't change E values below. Excessive value can damage the printer.

M907 E538 ; set extruder motor current
G21 ; set units to millimeters
G90 ; use absolute coordinates
M83 ; use relative distances for extrusion

M900 K0.05 ; Filament gcode LA 1.5
M900 K30 ; Filament gcode LA 1.0




M107
;LAYER_CHANGE
;Z:0.2
;HEIGHT:0.2
G1 E-.8 F2100
G1 Z.6 F720
G1 X90.001 Y96.31 F10800
G1 Z.2 F720
G1 E.8 F2100
M204 S800
;TYPE:Skirt/Brim
;WIDTH:0.42
G1 F1200
G1 X91.278 Y95.258 E.05188
G1 X111.634 Y84.207 E.72624
G1 X118.03 Y82.069 E.21145
G1 X125.704 Y80.073 E.24862
G1 X133.293 Y78.331 E.24414
G1 X134.973 Y78.287 E.05269
G1 X135.494 Y78.355 E.01647
G1 X139.48 Y79.389 E.12911
G1 X140.723 Y79.88 E.0419
G1 X145.764 Y82.285 E.17512
G1 X146.18 Y82.544 E.01536
G1 X151.698 Y86.909 E.2206
G1 X152.737 Y88.037 E.04808
G1 X153.56 Y89.396 E.04981
G1 X154.087 Y90.896 E.04985
G1 X154.296 Y92.922 E.06386
G1 X154.179 Y94.057 E.03578
G1 X153.74 Y95.584 E.04982
G1 X152.997 Y96.989 E.04983
G1 X151.983 Y98.212 E.04981
G1 X139.849 Y111.834 E.57198
G1 X138.827 Y112.765 E.04335
G1 X129.4 Y119.697 E.36689
G1 X127.951 Y120.582 E.05324
G1 X126.682 Y121.084 E.04279
G1 X121.471 Y122.625 E.17038
G1 X120.668 Y122.801 E.02578
G1 X102.888 Y125.163 E.56238
G1 X99.537 Y125.359 E.10525
G1 X98.046 Y125.238 E.0469
G1 X96.83 Y124.884 E.03971
G1 X96.13 Y124.582 E.0239
G1 X94.894 Y123.752 E.04668
G1 X94.065 Y122.913 E.03698
G1 X93.582 Y122.267 E.02529
G1 X93.142 Y121.482 E.02822
G1 X92.822 Y120.689 E.02681
G1 X88.261 Y102.869 E.57674
G1 X88.063 Y101.448 E.04498
G1 X88.196 Y99.755 E.05325
G1 X88.734 Y98.143 E.05328
G1 X89.647 Y96.709 E.0533
G1 X89.961 Y96.355 E.01484
M204 S1000
;WIPE_START
G1 F8640
G1 X90.001 Y96.31 E-.0139
G1 X91.278 Y95.258 E-.38203
G1 X92.816 Y94.423 E-.40407
;WIPE_END
G1 Z.6 F720
; printing object refined_hand_blender_small.stl id:0 copy 0
G1 X95.436 Y108.065 F10800
G1 Z.2 F720
G1 E.8 F2100
M204 S800
;TYPE:Support material interface
;WIDTH:0.38
G1 F1200
G1 X95.391 Y107.819 E.00701
G1 X95.589 Y107.771 E.00571
G1 X95.832 Y107.943 E.00834
G1 X95.869 Y108.094 E.00436
G1 X95.847 Y108.182 E.00254
G1 X95.482 Y108.078 E.01064
M204 S1000
G1 X95.893 Y107.398 F10800
M204 S800
G1 F1200
G1 X96.44 Y106.995 E.01904
M204 S1000
G1 X95.652 Y106.428 F10800
M204 S800
G1 F1200
G1 X95.623 Y106.497 E.0021
G1 X95.813 Y106.368 E.00644
G1 X95.776 Y106.332 E.00145
G1 X97.098 Y105.587 E.04253
G1 X97.739 Y105.378 E.0189
G1 X97.646 Y105.286 E.00367
G1 X98.151 Y105.061 E.0155
G1 X98.27 Y105.18 E.00472
G1 X98.814 Y104.994 E.01611
G1 X98.749 Y104.93 E.00256
G1 X98.823 Y104.91 E.00215
G1 X100.034 Y104.756 E.03422
G1 X99.811 Y104.533 E.00884
G1 X99.969 Y104.464 E.00483
G1 X100.439 Y104.432 E.0132
G1 X100.663 Y104.656 E.00888
G1 X101.319 Y104.583 E.0185
G1 X101.246 Y104.51 E.00289
G1 X101.546 Y104.584 E.00866
G1 X101.477 Y104.581 E.00194
M204 S1000
;WIPE_START
G1 F8640
G1 X101.546 Y104.584 E-.01595
G1 X101.246 Y104.51 E-.07135
G1 X101.319 Y104.583 E-.02384
G1 X100.663 Y104.656 E-.15241
G1 X100.439 Y104.432 E-.07315
G1 X99.969 Y104.464 E-.10878
G1 X99.811 Y104.533 E-.03981
G1 X100.034 Y104.756 E-.07282
G1 X98.995 Y104.888 E-.24189
;WIPE_END
G1 Z.6 F720
G1 X102.978 Y104.784 F10800
G1 Z.2 F720
G1 E.8 F2100
M204 S800
G1 F1200
G1 X103.623 Y104.699 E.01823
G1 X103.753 Y104.83 E.00517
G1 X104.542 Y104.889 E.02218
G1 X104.283 Y104.631 E.01025
G1 X104.836 Y104.635 E.0155
M204 S1000
;WIPE_START
G1 F8640
G1 X104.283 Y104.631 E-.12769
G1 X104.542 Y104.889 E-.08441
G1 X103.753 Y104.83 E-.18269
G1 X103.623 Y104.699 E-.04261
G1 X102.978 Y104.784 E-.15022
;WIPE_END
G1 E-.21238 F2100
G1 Z.6 F720
G1 X105.833 Y105.346 F10800
G1 Z.2 F720
G1 E.8 F2100
M204 S800
G1 F1200
G1 X104.991 Y104.609 E.03136
G1 X105.6 Y104.489 E.0174
G1 X106.905 Y105.793 E.05171
G1 X107.291 Y105.45 E.01447
G1 X106.342 Y104.502 E.0376
G1 X106.771 Y104.474 E.01205
G1 X106.949 Y104.379 E.00566
G1 X107.747 Y105.177 E.03163
G1 X108.26 Y104.961 E.0156
G1 X107.205 Y103.906 E.04182
G1 X107.041 Y103.584 E.01013
G1 X106.684 Y103.385 E.01146
G1 X104.073 Y100.774 E.10349
G1 X104.571 Y100.543 E.01539
G1 X105.657 Y101.629 E.04305
G1 X105.71 Y100.953 E.01901
G1 X105.036 Y100.279 E.02672
G1 X105.495 Y100.008 E.01494
G1 X105.998 Y100.511 E.01994
G1 X106.374 Y100.159 E.01444
G1 X105.967 Y99.751 E.01615
G1 X106.405 Y99.46 E.01474
G1 X106.802 Y99.857 E.01574
G1 X107.264 Y99.59 E.01496
G1 X106.813 Y99.139 E.01788
G1 X107.214 Y98.811 E.01452
G1 X107.758 Y99.355 E.02156
G1 X108.239 Y99.107 E.01517
G1 X107.671 Y98.539 E.02251
G1 X108.103 Y98.241 E.01471
G1 X108.603 Y98.741 E.01982
G1 X108.856 Y98.266 E.01508
G1 X108.484 Y97.893 E.01477
G1 X108.861 Y97.541 E.01446
G1 X109.117 Y97.797 E.01015
G1 X109.412 Y97.363 E.01471
G1 X109.22 Y97.171 E.00761
G1 X109.623 Y96.845 E.01453
G1 X109.753 Y96.974 E.00513
G1 X110.106 Y96.599 E.01443
G1 X110.046 Y96.538 E.0024
G1 X110.316 Y96.387 E.00867
G1 X110.216 Y96.485 E.00392
M204 S1000
G1 X111.076 Y96.364 F10800
M204 S800
;TYPE:Support material
;WIDTH:0.42
G1 F1200
G1 X109.771 Y97.717 E.05894
G1 X109.086 Y98.926 E.04357
G1 X108.742 Y99.374 E.01771
G1 X106.823 Y100.446 E.06892
G1 X106.381 Y100.838 E.01852
G1 X106.161 Y101.175 E.01262
G1 X106.176 Y101.716 E.01697
G1 X106.422 Y102.2 E.01702
G1 X107.148 Y102.558 E.02538
G1 X108.024 Y102.688 E.02777
G1 X108.058 Y102.822 E.00433
G1 X107.139 Y102.696 E.02908
G1 X106.65 Y102.515 E.01635
G1 X106.319 Y102.295 E.01246
G1 X106.093 Y101.917 E.01381
G1 X105.999 Y101.465 E.01448
G1 X106.032 Y101.135 E.0104
G1 X106.279 Y100.749 E.01437
G1 X107.063 Y100.124 E.03144
G1 X108.653 Y99.27 E.05659
G1 X108.97 Y98.856 E.01635
G1 X109.662 Y97.636 E.04398
G1 X110.531 Y96.688 E.04032
G1 X110.827 Y96.421 E.0125
G1 X111.038 Y96.369 E.00681
M204 S1000
;WIPE_START
G1 F8640
G1 X110.827 Y96.421 E-.05018
G1 X110.531 Y96.688 E-.09204
G1 X109.662 Y97.636 E-.29695
G1 X108.97 Y98.856 E-.32386
G1 X108.873 Y98.983 E-.03697
;WIPE_END
G1 Z.6 F720
G1 X110.263 Y97.708 F10800
G1 Z.2 F720
G1 E.8 F2100
M204 S800
;TYPE:Support material interface
;WIDTH:0.38
G1 F1200
G1 X110.033 Y97.984 E.01007
G1 X113.02 Y100.971 E.1184
G1 X112.165 Y100.845 E.02422
G1 X109.748 Y98.428 E.0958
G1 X109.509 Y98.918 E.01528
G1 X111.562 Y100.971 E.08138
G1 X111.151 Y101.29 E.01458
G1 X109.229 Y99.367 E.0762
G1 X108.873 Y99.74 E.01445
G1 X110.767 Y101.635 E.07509
G1 X110.298 Y101.895 E.01503
G1 X108.418 Y100.015 E.07452
G1 X107.921 Y100.247 E.01537
G1 X109.741 Y102.067 E.07214
G1 X109.164 Y102.22 E.01673
G1 X107.434 Y100.489 E.06859
G1 X106.993 Y100.778 E.01478
G1 X108.533 Y102.317 E.06102
G1 X107.786 Y102.3 E.02094
G1 X106.618 Y101.131 E.04632
G1 X106.505 Y101.45 E.00949
G1 X106.566 Y101.733 E.00811
G1 X106.711 Y101.954 E.00741
G1 X107.07 Y102.142 E.01136
M204 S1000
G1 X106.506 Y102.854 F10800
M204 S800
G1 F1200
G1 X107.089 Y103.061 E.01734
G1 X108.861 Y104.833 E.07024
G1 X109.543 Y104.786 E.01916
G1 X107.942 Y103.184 E.06348
G1 X108.666 Y103.179 E.02029
G1 X110.429 Y104.942 E.06988
G1 X110.742 Y105.058 E.00936
G1 X110.445 Y104.229 E.02468
G1 X109.291 Y103.076 E.04572
G1 X109.719 Y102.966 E.01239
M204 S1000
G1 X110.095 Y103.523 F10800
M204 S800
G1 F1200
G1 X110.234 Y103.289 E.00763
G1 X109.872 Y102.927 E.01435
G1 X110.442 Y102.768 E.01659
G1 X110.955 Y103.281 E.02033
G1 X111.577 Y103.174 E.01769
G1 X110.949 Y102.546 E.02489
G1 X111.385 Y102.253 E.01472
G1 X112.15 Y103.018 E.03032
G1 X112.697 Y102.835 E.01617
G1 X111.77 Y101.908 E.03674
G1 X112.009 Y101.73 E.00835
G1 X112.339 Y101.749 E.00926
G1 X113.241 Y102.65 E.03573
G1 X113.767 Y102.447 E.0158
G1 X113.18 Y101.86 E.02327
G1 X113.845 Y101.796 E.01872
G1 X114.257 Y102.208 E.01633
G1 X114.744 Y101.966 E.01524
G1 X114.419 Y101.641 E.01288
G1 X114.917 Y101.41 E.01539
G1 X115.164 Y101.656 E.00977
G1 X115.23 Y101.597 E.00248
G1 X115.521 Y101.284 E.01198
G1 X115.338 Y101.101 E.00725
G1 X115.723 Y100.757 E.01447
G1 X115.825 Y100.859 E.00404
G1 X116.12 Y100.425 E.01471
G1 X116.943 Y99.789 E.02915
G1 X116.867 Y99.714 E.00299
G1 X117.168 Y99.286 E.01467
G1 X117.346 Y99.463 E.00704
G1 X117.672 Y99.094 E.0138
G1 X117.438 Y98.826 E.00997
G1 X117.681 Y98.34 E.01523
G1 X117.96 Y98.619 E.01106
G1 X118.21 Y98.14 E.01514
G1 X117.87 Y97.799 E.0135
G1 X118.059 Y97.259 E.01604
G1 X118.489 Y97.689 E.01704
G1 X118.827 Y97.298 E.01449
G1 X118.215 Y96.686 E.02426
G1 X118.229 Y96.07 E.01727
M204 S1000
G1 X117.383 Y96.403 F10800
M204 S800
G1 F1200
G1 X117.303 Y96.052 E.01009
G1 X117.139 Y95.836 E.0076
G1 X116.844 Y95.648 E.0098
G1 X116.294 Y95.495 E.016
G1 X117.357 Y96.558 E.04214
G1 X117.186 Y97.116 E.01636
G1 X115.511 Y95.441 E.06639
G1 X114.774 Y95.433 E.02066
G1 X117 Y97.659 E.08823
G1 X116.796 Y98.184 E.01579
G1 X114.122 Y95.51 E.10599
G1 X113.546 Y95.663 E.0167
G1 X116.536 Y98.653 E.11852
G1 X116.248 Y99.094 E.01476
G1 X115.289 Y98.136 E.03799
G1 X115.141 Y98.717 E.0168
G1 X115.905 Y99.48 E.03026
G1 X115.504 Y99.809 E.01454
G1 X114.814 Y99.119 E.02735
G1 X114.368 Y99.402 E.0148
G1 X115.105 Y100.139 E.02921
G1 X114.718 Y100.481 E.01448
G1 X113.815 Y99.578 E.03579
G1 X113.173 Y99.666 E.01816
G1 X114.277 Y100.77 E.04376
G1 X113.748 Y100.93 E.01549
G1 X112.446 Y99.668 E.05082
G1 X111.936 Y99.53 E.01481
M204 S1000
;WIPE_START
G1 F8640
G1 X112.446 Y99.668 E-.122
G1 X113.748 Y100.93 E-.41868
G1 X114.277 Y100.77 E-.12761
G1 X113.874 Y100.367 E-.13171
;WIPE_END
G1 Z.6 F720
G1 X111.168 Y98.761 F10800
G1 Z.2 F720
G1 E.8 F2100
M204 S800
G1 F1200
G1 X111.06 Y98.282 E.01376
G1 X110.369 Y97.59 E.02741
G1 X110.722 Y97.214 E.01446
G1 X111.197 Y97.69 E.01885
G1 X111.466 Y97.229 E.01496
G1 X111.088 Y96.852 E.01496
G1 X111.471 Y96.505 E.01449
G1 X111.81 Y96.844 E.01344
G1 X112.264 Y96.569 E.01488
G1 X111.882 Y96.187 E.01514
G1 X112.304 Y95.997 E.01297
G1 X112.394 Y95.97 E.00263
G1 X112.848 Y96.424 E.018
G1 X113.674 Y96.521 E.02331
G1 X112.976 Y95.822 E.02769
G1 X113.394 Y95.707 E.01215
M204 S1000
G1 X113.41 Y94.798 F10800
M204 S800
G1 F1200
G1 X113.953 Y94.612 E.01609
G1 X114.643 Y94.573 E.01937
G1 X114.548 Y94.478 E.00377
G1 X115.164 Y94.365 E.01755
G1 X115.371 Y94.571 E.00819
G1 X116.127 Y94.598 E.0212
G1 X115.801 Y94.272 E.01292
G1 X116.434 Y94.176 E.01794
G1 X117.063 Y94.806 E.02495
G1 X117.682 Y95.149 E.01984
G1 X117.932 Y95.419 E.01031
G1 X118.179 Y95.921 E.01568
G1 X119.178 Y96.92 E.0396
G1 X119.497 Y96.51 E.01456
G1 X117.129 Y94.142 E.09386
G1 X117.953 Y94.237 E.02325
G1 X119.703 Y95.987 E.06937
G1 X119.763 Y95.575 E.01167
G1 X119.694 Y95.248 E.00937
G1 X119.109 Y94.664 E.02317
G1 X118.702 Y94.474 E.01259
M204 S1000
;WIPE_START
G1 F8640
G1 X119.109 Y94.664 E-.10371
G1 X119.694 Y95.248 E-.19087
G1 X119.763 Y95.575 E-.07717
G1 X119.703 Y95.987 E-.09614
G1 X118.686 Y94.97 E-.33211
;WIPE_END
G1 Z.6 F720
G1 X116.156 Y94.967 F10800
G1 Z.2 F720
G1 E.8 F2100
M204 S800
;TYPE:Support material
;WIDTH:0.42
G1 F1200
G1 X117.058 Y95.19 E.02913
G1 X117.445 Y95.434 E.01434
G1 X117.764 Y95.842 E.01624
G1 X117.872 Y96.163 E.01062
G1 X117.89 Y96.465 E.00949
G1 X117.766 Y96.982 E.01667
G1 X117.342 Y98.195 E.04029
G1 X116.776 Y99.225 E.03685
G1 X116.467 Y99.633 E.01605
G1 X115.1 Y100.82 E.05676
G1 X114.482 Y101.23 E.02325
G1 X113.272 Y101.497 E.03885
G1 X112.161 Y101.349 E.03514
G1 X111.877 Y101.384 E.00897
G1 X110.701 Y102.264 E.04605
G1 X110.241 Y102.453 E.01559
G1 X108.544 Y102.819 E.05443
G1 X108.596 Y102.681 E.00462
G1 X109.244 Y102.579 E.02057
G1 X110.564 Y102.18 E.04324
G1 X110.908 Y101.991 E.01231
G1 X111.824 Y101.258 E.03678
G1 X112.302 Y101.223 E.01503
G1 X113.265 Y101.362 E.03051
G1 X114.351 Y101.139 E.03476
G1 X114.859 Y100.841 E.01847
G1 X116.334 Y99.58 E.06084
G1 X117.113 Y98.378 E.04491
G1 X117.705 Y96.706 E.05561
G1 X117.74 Y96.192 E.01615
G1 X117.622 Y95.868 E.01081
G1 X117.391 Y95.567 E.0119
G1 X117.001 Y95.315 E.01456
G1 X116.517 Y95.16 E.01593
G1 X114.763 Y95.065 E.05508
G1 X113.702 Y95.235 E.03369
G1 X112.189 Y95.648 E.04917
G1 X111.753 Y95.839 E.01492
G1 X111.905 Y95.621 E.00833
G1 X112.327 Y95.464 E.01412
G1 X114.016 Y95.018 E.05477
G1 X114.946 Y94.924 E.02931
G1 X116.099 Y94.965 E.03617
M204 S1000
;WIPE_START
G1 F8640
G1 X114.946 Y94.924 E-.2664
G1 X114.016 Y95.018 E-.21583
G1 X112.685 Y95.369 E-.31777
;WIPE_END
G1 Z.6 F720
G1 X113.394 Y96.827 F10800
G1 Z.2 F720
G1 E.8 F2100
M204 S800
G1 F1200
G1 X113.908 Y96.964 E.01668
G1 X114.416 Y97.219 E.01782
G1 X113.762 Y97.49 E.0222
G1 X113.615 Y97.713 E.00837
G1 X112.978 Y98.002 E.02193
G1 X111.926 Y98.978 E.04499
G1 X111.748 Y98.977 E.00558
G1 X111.546 Y98.733 E.00993
G1 X111.421 Y98.359 E.01236
G1 X111.568 Y97.75 E.01964
G1 X111.783 Y97.416 E.01245
M73 Q1 S54
G1 X112.11 Y97.066 E.01502
G1 X112.496 Y96.862 E.01369
G1 X112.738 Y96.794 E.00788
G1 X113.338 Y96.819 E.01883
M204 S1000
G1 X113.265 Y97.685 F10800
M204 S800
G1 F1200
M73 P0 R53
G1 X113.265 Y97.152 E.01671
G1 X112.846 Y97.132 E.01315
G1 X112.846 Y97.69 E.0175
M73 P1 R53
G1 X112.427 Y98.039 E.0171
G1 X112.427 Y97.282 E.02374
G1 X112.309 Y97.344 E.00418
G1 X112.008 Y97.693 E.01445
G1 X112.008 Y98.667 E.03054
M204 S1000
;WIPE_START
G1 F8640
G1 X112.008 Y97.693 E-.2249
G1 X112.309 Y97.344 E-.10642
G1 X112.427 Y97.282 E-.03078
G1 X112.427 Y98.039 E-.17479
G1 X112.846 Y97.69 E-.12591
G1 X112.846 Y97.132 E-.12884
G1 X112.882 Y97.134 E-.00836
;WIPE_END
G1 Z.6 F720
G1 X110.727 Y105.442 F10800
G1 Z.2 F720
G1 E.8 F2100
M204 S800
;TYPE:Support material interface
;WIDTH:0.38
G1 F1200
G1 X111.32 Y105.833 E.01991
G1 X111.43 Y106.287 E.01309
G1 X111.111 Y106.32 E.00899
G1 X110.682 Y105.925 E.01634
M204 S1000
;WIPE_START
G1 F8640
G1 X111.111 Y106.32 E-.13465
G1 X111.43 Y106.287 E-.07405
G1 X111.32 Y105.833 E-.10786
G1 X110.727 Y105.442 E-.16401
;WIPE_END
G1 E-.31943 F2100
G1 Z.6 F720
G1 X109.192 Y105.7 F10800
G1 Z.2 F720
G1 E.8 F2100
M204 S800
G1 F1200
G1 X109.488 Y105.651 E.00841
G1 X108.993 Y105.694 E.01393
G1 X109.04 Y105.741 E.00186
G1 X108.518 Y105.948 E.01574
G1 X108.399 Y105.83 E.0047
G1 X107.917 Y106.076 E.01517
G1 X108.04 Y106.2 E.0049
G1 X107.638 Y106.527 E.01452
G1 X107.516 Y106.404 E.00486
G1 X107.162 Y106.78 E.01447
G1 X107.309 Y106.927 E.00583
G1 X107.019 Y107.366 E.01475
G1 X106.652 Y106.999 E.01455
G1 X106.304 Y106.91 E.01007
G1 X106.127 Y106.754 E.00661
G1 X105.795 Y106.265 E.01657
G1 X105.37 Y106.089 E.01289
M204 S1000
G1 X105.137 Y105.916 F10800
M204 S800
G1 F1200
G1 X104.707 Y105.784 E.01261
G1 X106.717 Y107.794 E.07967
G1 X106.498 Y108.08 E.0101
G1 X106.448 Y108.132 E.00202
G1 X106.227 Y108.032 E.0068
G1 X103.906 Y105.711 E.092
G1 X103.246 Y105.68 E.01852
G1 X103.675 Y105.856 E.013
G1 X103.99 Y106.202 E.01311
G1 X104.15 Y106.514 E.00983
G1 X104.518 Y106.68 E.01132
M204 S1000
;WIPE_START
G1 F8640
G1 X104.15 Y106.514 E-.09322
G1 X103.99 Y106.202 E-.08096
G1 X103.675 Y105.856 E-.10804
G1 X103.246 Y105.68 E-.10707
